X:108
T:Rory's Jig
M:6/8
R:Jig
Z:As played by the CHB
K:G
d|gfg ege|dBG A2G|DGG FGA|BAG A2B|\
gfg ege|dBG A2G|DGG FGA|BAG G2::\
d|edd gdd|edd gdd|edd gdB|gdB A2d|\
gfg age|dBG A2G|DGG FGA|BAG G2:|
